dist/assets/img/logos/ucf_logo_ua.svg

<svg width="121" height="90" viewBox="0 0 121 90" fill="none" xmlns="http://www.w3.org/2000/svg">
<path d="M11.7657 0.412673C6.83325 1.28946 0.0253906 6.29233 0.0253906 15.4728C0.0253906 29.7078 11.4318 33.8339 18.4965 34.5301C28.9524 35.5359 35.6318 28.2121 35.6318 19.7794C35.6061 -0.773573 16.6982 -0.43833 11.7657 0.412673ZM17.6231 26.8711C11.7144 26.4585 8.37465 24.0087 8.37465 16.3238C8.37465 12.4041 9.73622 9.85107 14.643 8.66482C19.5498 7.47858 27.5394 9.25795 27.5394 18.3869C27.5137 22.2293 24.6364 27.3611 17.6231 26.8711Z" fill="#FFCC2D"/>
<path d="M48.8887 85.4609L53.7955 65.9395L55.5938 66.0684C55.5938 66.0684 58.8307 85.4609 58.805 85.4609H56.8783C56.8783 85.4609 54.2579 69.5756 54.2579 69.6013H54.1294C54.1294 69.6013 51.9715 80.8707 50.4044 85.4609H48.8887Z" fill="white"/>
<path d="M58.0604 83.5781L57.8292 85.4606H49.6084V83.5781H58.0604Z" fill="white"/>
<path d="M80.3327 23.6218L80.8722 11.2178H78.9197L78.0977 31.255L81.1034 31.2292C81.1034 31.2292 85.1624 30.8682 85.1624 27.3095C85.1367 24.7307 82.1053 23.7249 80.3327 23.6218ZM80.0758 29.7593L80.307 25.1175C81.3089 25.0659 83.1843 25.0917 83.1843 27.5158C83.1843 29.2436 81.0006 29.8109 80.0758 29.7593Z" fill="white"/>
<path d="M74.2698 16.4268L76.1451 16.1947C76.1451 16.1947 76.8645 10.9339 73.1651 11.0629C69.4657 11.1918 68.3097 16.1947 68.3354 21.4039C68.3611 26.613 68.8235 31.6159 72.7027 31.5127C76.5819 31.4096 75.7598 26.3036 75.7598 26.3036L73.8073 26.5099C73.8073 26.5099 74.6037 29.5271 72.8311 29.5271C70.7246 29.5271 70.0823 26.8709 70.2621 21.5328C70.442 16.1173 70.6732 12.9712 73.1651 12.9712C74.5524 12.9712 74.2698 16.4268 74.2698 16.4268Z" fill="white"/>
<path d="M32.0098 26.2003C31.085 23.5699 28.6188 23.5441 27.1801 23.9051L27.3343 19.7791C32.6778 19.1859 33.0118 11.6816 33.0118 11.6816H31.0593C31.0593 17.355 28.2848 18.2318 27.4113 18.2318L27.5912 11.6816H25.5873L25.0479 31.2547H27.0774L27.2058 25.3493C31.419 23.9567 30.9566 31.2031 30.9566 31.2031H32.8576C32.8576 31.2547 33.1659 29.4753 32.0098 26.2003Z" fill="white"/>
<path d="M22.0938 53.4839C21.169 50.8536 18.7027 50.8278 17.2641 51.1888L17.4182 47.0627C23.1214 46.418 23.327 38.6816 23.327 38.6816H21.3745C21.3745 44.355 18.3688 45.5155 17.4953 45.5155L17.6751 38.7074H15.6713L15.1318 58.5642H17.1613L17.2898 52.6587C21.503 51.2662 21.0405 58.5126 21.0405 58.5126H22.9416C22.9159 58.5384 23.2242 56.759 22.0938 53.4839Z" fill="white"/>
<path d="M93.3829 26.2003C92.4581 23.5699 89.9918 23.5441 88.5532 23.9051L88.7073 19.7791C94.0508 19.1859 94.3848 11.6816 94.3848 11.6816H92.4324C92.4324 17.355 89.6578 18.2318 88.7844 18.2318L88.9642 11.6816H86.9604L86.4209 31.2547H88.4504L88.5789 25.3493C92.792 23.9567 92.3296 31.2031 92.3296 31.2031H94.2307C94.2307 31.2547 94.5389 29.4753 93.3829 26.2003Z" fill="white"/>
<path d="M36.1716 31.358H34.3477L34.9128 11.9912H36.8396L36.1716 31.358Z" fill="white"/>
<path d="M36.1969 19.9082C36.1969 19.9082 42.2341 20.0113 42.2341 15.5242C42.2341 12.7907 38.9457 12.0686 36.7878 11.8623C35.7088 11.785 34.9124 11.8108 34.9124 11.8108L34.8867 13.3323L36.7107 13.2807C36.7107 13.2807 40.333 12.7649 40.333 15.5758C40.333 17.252 38.6118 18.3609 36.274 18.3609L36.1969 19.9082Z" fill="white"/>
<path d="M74.4236 58.4619H72.5996L73.1648 39.0951L75.0659 39.0693L74.4236 58.4619Z" fill="white"/>
<path d="M74.4489 47.0117C74.4489 47.0117 80.486 47.1149 80.486 42.6278C80.486 39.8942 77.1977 39.1722 75.0397 38.9659C73.9608 38.8885 73.1644 38.9143 73.1644 38.9143L73.1387 40.4358L74.9627 40.3842C74.9627 40.3842 78.585 39.8684 78.585 42.6793C78.585 44.3555 76.8637 45.4644 74.5259 45.4644L74.4489 47.0117Z" fill="white"/>
<path d="M53.7181 31.2289H51.7656L52.5363 11.6816L54.5145 11.7074L53.7181 31.2289Z" fill="white"/>
<path d="M55.5422 6.34361C54.7715 6.54991 54.1035 7.06567 54.1035 8.20034C54.1035 9.95392 55.5165 10.4181 56.3642 10.547C56.6725 10.5986 56.7496 10.5728 56.7496 10.5728C56.9037 10.547 57.0322 10.547 57.1863 10.4955C57.8799 10.2634 58.4451 9.77341 58.4451 8.74189C58.4708 6.18888 55.5422 6.34361 55.5422 6.34361ZM56.6468 9.15449C56.6211 9.15449 56.5954 9.18028 56.5698 9.18028C56.4927 9.20607 56.4156 9.20607 56.3385 9.20607C55.8247 9.18028 55.4651 9.02555 55.4651 8.32928C55.4651 7.99404 55.6706 7.73616 55.9532 7.68458C56.6468 7.68458 57.1349 7.76194 57.1349 8.56137C57.1092 8.89661 56.878 9.07713 56.6468 9.15449Z" fill="white"/>
<path d="M49.967 6.34361C49.1963 6.54991 48.5283 7.06567 48.5283 8.20034C48.5283 9.95392 49.9413 10.4181 50.789 10.547C51.0973 10.5986 51.1744 10.5728 51.1744 10.5728C51.3285 10.547 51.457 10.547 51.6111 10.4955C52.3048 10.2634 52.8699 9.77341 52.8699 8.74189C52.8956 6.18888 49.967 6.34361 49.967 6.34361ZM51.0716 9.15449C51.0459 9.15449 51.0203 9.18028 50.9946 9.18028C50.9175 9.20607 50.8404 9.20607 50.7634 9.20607C50.2496 9.18028 49.8899 9.02555 49.8899 8.32928C49.8899 7.99404 50.0954 7.73616 50.378 7.68458C51.0716 7.68458 51.5597 7.76194 51.5597 8.56137C51.5597 8.89661 51.3285 9.07713 51.0716 9.15449Z" fill="white"/>
<path d="M18.1366 26.3293C17.0319 26.613 16.0557 27.3608 16.0557 28.9854C16.0557 31.4869 18.0852 32.1574 19.3183 32.3379C19.755 32.3895 19.8578 32.3895 19.8835 32.3895C20.089 32.3379 20.2945 32.3379 20.5 32.2863C21.4763 31.9511 22.324 31.229 22.324 29.7591C22.324 26.123 18.1366 26.3293 18.1366 26.3293ZM19.7807 30.5585C19.7293 30.5843 19.7036 30.5843 19.6523 30.6101C19.5238 30.6359 19.3697 30.6359 19.2669 30.6359C18.4191 30.5843 17.8283 30.3264 17.8283 29.1918C17.8283 28.6244 18.1879 28.2118 18.6247 28.1344C19.755 28.1344 20.5771 28.2634 20.5771 29.5786C20.5771 30.1201 20.1918 30.4038 19.7807 30.5585Z" fill="white"/>
<path d="M21.3224 11.6816L21.4251 16.4524C21.4251 17.9223 21.3994 18.9023 21.2967 19.9854C21.1425 21.8679 20.9113 24.0599 19.2158 24.0599C17.5203 24.0599 17.289 21.3263 17.1092 19.9854C17.0321 19.4438 16.9294 18.6444 16.9294 16.4008C16.9294 14.1573 17.1092 11.6816 17.1092 11.6816H15.1825C15.1825 11.6816 15.0283 14.6988 15.0283 16.375C15.0283 18.0255 15.1311 19.1859 15.1825 19.9596C15.4651 23.5441 16.2614 25.5298 19.2415 25.5298C21.9646 25.5298 22.9665 23.5957 23.2748 19.9338C23.3776 18.696 23.3776 17.7934 23.3776 16.4266L23.2491 11.7074L21.3224 11.6816Z" fill="white"/>
<path d="M28.6951 53.3547C27.5905 53.6383 26.6143 54.3862 26.6143 56.0108C26.6143 58.5123 28.6438 59.1828 29.8769 59.3633C30.3136 59.4149 30.4164 59.4149 30.4421 59.4149C30.6476 59.3633 30.8531 59.3633 31.0586 59.3117C32.0348 58.9765 32.8826 58.2544 32.8826 56.7845C32.9083 53.1484 28.6951 53.3547 28.6951 53.3547ZM30.3393 57.5839C30.2879 57.6097 30.2622 57.6097 30.2109 57.6355C30.0824 57.6613 29.9283 57.6613 29.8255 57.6613C28.9777 57.6097 28.3869 57.3518 28.3869 56.2171C28.3869 55.6498 28.7465 55.2372 29.1833 55.1598C30.3136 55.1598 31.1357 55.2888 31.1357 56.604C31.1357 57.1455 30.776 57.4292 30.3393 57.5839Z" fill="white"/>
<path d="M31.881 38.707L31.9837 43.4778C31.9837 44.9477 31.958 45.9277 31.8553 47.0108C31.7011 48.8933 31.4699 51.0853 29.7744 51.0853C28.0788 51.0853 27.8476 48.3517 27.6678 47.0108C27.5907 46.4692 27.488 45.6698 27.488 43.4262C27.488 41.2085 27.6678 38.707 27.6678 38.707H25.7411C25.7411 38.707 25.5869 41.7242 25.5869 43.4004C25.5869 45.0509 25.6897 46.2113 25.7411 46.985C26.0236 50.5695 26.82 52.5552 29.8001 52.5552C32.5232 52.5552 33.5251 50.6211 33.8334 46.9592C33.9362 45.7214 33.9362 44.8188 33.9362 43.452L33.8077 38.7328L31.881 38.707Z" fill="white"/>
<path d="M65.3045 53.51C64.1999 53.7936 63.2236 54.5415 63.2236 56.1661C63.2236 58.6675 65.2531 59.338 66.4863 59.5185C66.923 59.5701 67.0258 59.5701 67.0514 59.5701C67.257 59.5186 67.4625 59.5186 67.668 59.467C68.6442 59.1317 69.492 58.4097 69.492 56.9398C69.5177 53.3036 65.3045 53.51 65.3045 53.51ZM66.9744 57.7134C66.923 57.7392 66.8973 57.7392 66.8459 57.765C66.7175 57.7908 66.5633 57.7908 66.4606 57.7908C65.6128 57.7392 65.0219 57.4813 65.0219 56.3466C65.0219 55.7793 65.3816 55.3667 65.8183 55.2893C66.9487 55.2893 67.7708 55.4183 67.7708 56.7335C67.7451 57.3008 67.3854 57.5587 66.9744 57.7134Z" fill="white"/>
<path d="M68.5157 38.8623L68.6185 43.6331C68.6185 45.103 68.5928 46.0829 68.49 47.166C68.3359 49.0485 68.1047 51.2405 66.4091 51.2405C64.7136 51.2405 64.4824 48.507 64.3026 47.166C64.2255 46.6245 64.1227 45.8251 64.1227 43.5815C64.1227 41.338 64.3026 38.8623 64.3026 38.8623H62.3758C62.3758 38.8623 62.2217 41.8795 62.2217 43.5557C62.2217 45.2061 62.3244 46.3666 62.3758 47.1402C62.6584 50.7248 63.4548 52.7104 66.4348 52.7104C69.158 52.7104 70.1599 50.7763 70.4682 47.1145C70.5709 45.8766 70.5709 44.9741 70.5709 43.6073L70.4425 38.8881L68.5157 38.8623Z" fill="white"/>
<path d="M104.148 11.707L98.6503 26.8961L99.2412 11.707H97.3144L96.6465 31.2285H98.6246L104.276 15.1626L103.891 31.2285H105.792L106.075 11.707H104.148Z" fill="white"/>
<path d="M100.525 38.9652L95.0273 54.1286L95.6181 38.9395H93.7171L93.0234 58.4867H95.0016L100.679 42.4208L100.294 58.4609L102.169 58.4867L102.452 38.9652H100.525Z" fill="white"/>
<path d="M47.3469 38.8877L45.523 38.7588L44.7266 58.1255L46.6276 58.2803L47.3469 38.8877Z" fill="white"/>
<path d="M46.5509 50.3115C46.5509 50.3115 52.588 50.6468 52.254 55.1081C52.0485 57.8416 48.7345 58.3316 46.5765 58.3574C45.4976 58.3832 44.7012 58.28 44.7012 58.28L44.7782 56.7585L46.6022 56.939C46.6022 56.939 50.1731 57.7127 50.3787 54.9018C50.5071 53.2256 48.8373 51.9877 46.5252 51.833L46.5509 50.3115Z" fill="white"/>
<path d="M56.6984 58.357H54.9258L55.3882 38.8613H57.1865L56.6984 58.357Z" fill="white"/>
<path d="M52.0228 38.8618L60.2179 38.707V40.2027L51.9971 40.3317L52.0228 38.8618Z" fill="white"/>
<path d="M36.0437 75.0432C36.0437 73.7538 35.9923 72.7738 35.9152 72.026V71.8197C35.9152 71.7165 35.8895 71.5876 35.8895 71.4845C35.6069 67.9257 34.8106 65.9658 31.8819 65.9658C29.1844 65.9658 28.1825 67.8741 27.8742 71.5102C27.7715 72.7481 27.7715 73.6248 27.7715 74.9916V75.4558C27.7715 75.8168 27.7715 76.1521 27.7715 76.4357C27.7715 77.7251 27.8229 78.7051 27.8999 79.4529V79.6592C27.8999 79.7624 27.9256 79.8913 27.9256 79.9945C28.2082 83.5532 29.0046 85.5131 31.9333 85.5131C34.6307 85.5131 35.6326 83.6048 35.9409 79.9687C36.0437 78.7309 36.0437 77.8541 36.0437 76.4873V76.0231C36.0437 75.6621 36.0437 75.3269 36.0437 75.0432ZM31.9076 83.579C30.2377 83.579 29.9808 81.3612 29.8267 80.0203C29.8267 79.9687 29.6982 77.7767 29.6982 75.6105C29.6982 73.5475 29.801 71.536 29.801 71.4845C29.9551 69.6277 30.1863 67.9257 31.8562 67.9257C33.526 67.9257 33.7829 70.1435 33.9371 71.4845C33.9371 71.536 34.0655 73.6249 34.0655 75.7137C34.0655 77.8283 33.9628 79.9687 33.9628 80.0203C33.8086 81.877 33.5774 83.579 31.9076 83.579Z" fill="white"/>
<path d="M43.6473 23.5437L47.8862 23.1826L48.1174 24.6267L43.4932 24.833L43.6473 23.5437Z" fill="white"/>
<path d="M49.9414 31.3579L47.3467 11.7332L45.3428 11.5527L41.5664 31.3321H43.2106L45.9851 15.7046L46.1649 15.6788L47.8605 31.2805L49.9414 31.3579Z" fill="white"/>
<path d="M20.8861 85.5643H19.0107L19.2676 65.9912H21.2201L20.8861 85.5643Z" fill="white"/>
<path d="M16.416 75.8933C16.416 74.8618 15.9536 67.3833 20.1154 68.6727L20.0897 67.2028C18.651 66.8675 16.4674 66.9965 15.337 69.5237C14.3865 71.6383 14.4122 74.5266 14.4122 75.9191C14.4122 77.3117 14.4379 79.8131 15.337 81.8246C16.4674 84.3518 18.651 84.4807 20.0897 84.1455L20.1154 82.6756C16.1334 83.8876 16.416 76.9248 16.416 75.8933Z" fill="white"/>
<path d="M23.8146 75.8933C23.8146 74.8618 24.277 67.3833 20.1152 68.6727L20.1409 67.2028C21.5796 66.8675 23.7632 66.9965 24.8936 69.5237C25.8441 71.6383 25.8184 74.5266 25.8184 75.9191C25.8184 77.3117 25.7927 79.8131 24.8936 81.8246C23.7632 84.3518 21.5796 84.4807 20.1409 84.1455L20.1152 82.6756C24.0972 83.8876 23.8146 76.9248 23.8146 75.8933Z" fill="white"/>
<path d="M42.8258 58.5123L40.2568 38.6297L38.253 38.4492L34.4766 58.5123H36.1207L38.8182 42.4206L38.998 42.3948L40.7706 58.5123H42.8258Z" fill="white"/>
<path d="M64.6366 11.682L64.2256 23.1835L59.4729 19.7795L59.6785 11.6562H57.7003L57.1865 31.3583H59.139L59.3959 21.9714L64.0714 25.427L63.8402 31.3583H65.8184L66.5634 11.7078L64.6366 11.682Z" fill="white"/>
<path d="M45.4198 65.5531L45.0088 77.0546L40.2818 73.6506L40.4617 65.5273H38.4835L37.9697 85.2293H39.9222L40.1791 75.8425L44.8547 79.2981L44.6234 85.2293H46.6016L47.3466 65.5789L45.4198 65.5531Z" fill="white"/>
<path d="M88.9648 38.9395L88.5537 50.4667L83.8268 47.0627L84.0066 38.9395H82.0541L81.5146 58.6157H83.4671L83.724 49.2546L88.4253 52.6844L88.1941 58.6157H90.1465L90.9172 38.991L88.9648 38.9395Z" fill="white"/>
<path d="M115.734 11.708L110.236 26.8971L110.827 11.708H108.926L108.232 31.2295H110.211L115.888 15.1636L115.503 31.2295H117.378L117.661 11.708H115.734Z" fill="white"/>
<path d="M114.578 7.89102C114.526 8.76781 114.372 9.61882 113.396 9.61882C112.24 9.61882 112.06 8.7936 112.035 7.86523L110.75 8.01996C110.878 9.79933 111.598 11.0114 113.396 11.0114C115.451 11.0114 115.862 9.4383 115.939 8.04575L114.578 7.89102Z" fill="white"/>
<path d="M112.035 38.9658L106.537 54.1549L107.154 38.9658H105.227L104.533 58.4873H106.537L112.189 42.4214L111.803 58.4615L113.679 58.4873L113.961 38.9658H112.035Z" fill="white"/>
<path d="M110.904 35.1234C110.853 36.0002 110.698 36.8512 109.722 36.8512C108.566 36.8512 108.386 36.026 108.361 35.0977L107.076 35.2524C107.205 37.0318 107.924 38.2438 109.722 38.2438C111.777 38.2438 112.188 36.6707 112.266 35.2782L110.904 35.1234Z" fill="white"/>
<path d="M94.6934 72.877L72.266 72.4386L71.7266 65.8369L96.1064 67.1521L94.6934 72.877Z" fill="#A3D2D9"/>
<path d="M89.7097 83.6305L67.308 83.1921L66.7686 76.6162L91.1227 77.9056L89.7097 83.6305Z" fill="#A3D2D9"/>
</svg>

<svg width="121" height="90" fill="none" xmlns="http://www.w3.org/2000/svg"><path d="M11.766.413C6.833 1.289.026 6.293.026 15.473c0 14.235 11.406 18.36 18.47 19.057 10.456 1.006 17.136-6.318 17.136-14.75C35.606-.775 16.698-.439 11.766.412Zm5.857 26.458c-5.909-.412-9.248-2.862-9.248-10.547 0-3.92 1.361-6.473 6.268-7.66 4.907-1.185 12.896.594 12.896 9.723-.025 3.842-2.903 8.974-9.916 8.484Z" fill="#FFCC2D"/><path d="m48.889 85.46 4.906-19.52 1.799.128s3.237 19.393 3.211 19.393h-1.927s-2.62-15.885-2.62-15.86h-.129s-2.157 11.27-3.725 15.86H48.89Z" fill="#fff"/><path d="m58.06 83.578-.23 1.883h-8.222v-1.883h8.452Zm22.273-59.956.54-12.404H78.92l-.822 20.037 3.005-.026s4.06-.36 4.06-3.92c-.026-2.578-3.058-3.584-4.83-3.687Zm-.257 6.137.231-4.642c1.002-.051 2.877-.025 2.877 2.399 0 1.728-2.183 2.295-3.108 2.243ZM74.27 16.427l1.875-.232s.72-5.261-2.98-5.132c-3.7.129-4.855 5.132-4.83 10.34.026 5.21.489 10.213 4.368 10.11 3.879-.103 3.057-5.21 3.057-5.21l-1.953.207s.797 3.017-.976 3.017c-2.106 0-2.749-2.656-2.569-7.994.18-5.416.411-8.562 2.903-8.562 1.387 0 1.105 3.456 1.105 3.456ZM32.01 26.2c-.925-2.63-3.391-2.656-4.83-2.295l.154-4.126c5.344-.593 5.678-8.097 5.678-8.097h-1.953c0 5.673-2.774 6.55-3.648 6.55l.18-6.55h-2.004l-.54 19.573h2.03l.129-5.906c4.213-1.392 3.75 5.854 3.75 5.854h1.902c0 .052.308-1.728-.848-5.003Zm-9.916 27.284c-.925-2.63-3.391-2.656-4.83-2.295l.154-4.126c5.703-.645 5.909-8.381 5.909-8.381h-1.953c0 5.673-3.005 6.834-3.879 6.834l.18-6.809h-2.004l-.54 19.857h2.03l.129-5.905c4.213-1.393 3.75 5.854 3.75 5.854h1.902c-.026.025.282-1.754-.848-5.03ZM93.383 26.2c-.925-2.63-3.391-2.656-4.83-2.295l.154-4.126c5.344-.593 5.678-8.097 5.678-8.097h-1.953c0 5.673-2.774 6.55-3.648 6.55l.18-6.55H86.96l-.54 19.573h2.03l.129-5.906c4.213-1.392 3.75 5.854 3.75 5.854h1.902c0 .052.308-1.728-.848-5.003Zm-57.211 5.158h-1.824l.565-19.367h1.927l-.668 19.367Z" fill="#fff"/><path d="M36.197 19.908s6.037.103 6.037-4.384c0-2.733-3.288-3.455-5.446-3.662-1.08-.077-1.876-.051-1.876-.051l-.025 1.521 1.824-.051s3.622-.516 3.622 2.295c0 1.676-1.721 2.785-4.059 2.785l-.077 1.547Zm38.227 38.554H72.6l.565-19.367 1.9-.026-.641 19.393Z" fill="#fff"/><path d="M74.449 47.012s6.037.103 6.037-4.384c0-2.734-3.288-3.456-5.446-3.662-1.08-.078-1.876-.052-1.876-.052l-.025 1.522 1.824-.052s3.622-.516 3.622 2.295c0 1.676-1.721 2.785-4.06 2.785l-.076 1.548ZM53.718 31.229h-1.952l.77-19.547 1.978.025-.796 19.522Zm1.824-24.885c-.77.206-1.439.722-1.439 1.856 0 1.754 1.413 2.218 2.261 2.347.309.052.386.026.386.026.154-.026.282-.026.436-.078.694-.232 1.26-.722 1.26-1.753.025-2.553-2.904-2.398-2.904-2.398Zm1.105 2.81c-.026 0-.052.026-.077.026-.077.026-.154.026-.231.026-.514-.026-.874-.18-.874-.877 0-.335.206-.593.488-.644.694 0 1.182.077 1.182.876-.026.336-.257.516-.488.593Zm-6.68-2.81c-.77.206-1.439.722-1.439 1.856 0 1.754 1.413 2.218 2.261 2.347.308.052.385.026.385.026.154-.026.283-.026.437-.078.694-.232 1.259-.722 1.259-1.753.026-2.553-2.903-2.398-2.903-2.398Zm1.105 2.81c-.026 0-.052.026-.077.026-.078.026-.155.026-.232.026-.513-.026-.873-.18-.873-.877 0-.335.205-.593.488-.644.694 0 1.182.077 1.182.876 0 .336-.232.516-.488.593ZM18.137 26.33c-1.105.283-2.081 1.03-2.081 2.655 0 2.502 2.03 3.172 3.262 3.353.437.051.54.051.566.051.205-.051.41-.051.616-.103.976-.335 1.824-1.057 1.824-2.527 0-3.636-4.187-3.43-4.187-3.43Zm1.644 4.229c-.052.025-.077.025-.129.051-.128.026-.282.026-.385.026-.848-.052-1.439-.31-1.439-1.444 0-.568.36-.98.797-1.058 1.13 0 1.952.13 1.952 1.445 0 .541-.385.825-.796.98Zm1.541-18.877.103 4.77c0 1.47-.026 2.45-.128 3.533-.155 1.883-.386 4.075-2.081 4.075-1.696 0-1.927-2.734-2.107-4.075-.077-.541-.18-1.34-.18-3.584 0-2.244.18-4.72.18-4.72h-1.927s-.154 3.018-.154 4.694c0 1.65.103 2.81.154 3.585.283 3.584 1.08 5.57 4.06 5.57 2.723 0 3.724-1.934 4.033-5.596.103-1.238.103-2.14.103-3.507l-.129-4.72-1.927-.025Zm7.373 41.673c-1.105.283-2.08 1.031-2.08 2.656 0 2.501 2.029 3.172 3.262 3.352.437.052.54.052.565.052.206-.052.411-.052.617-.103.976-.335 1.824-1.058 1.824-2.527.025-3.637-4.188-3.43-4.188-3.43Zm1.644 4.229c-.051.026-.077.026-.128.051-.129.026-.283.026-.385.026-.848-.051-1.44-.31-1.44-1.444 0-.567.36-.98.797-1.057 1.13 0 1.953.129 1.953 1.444 0 .541-.36.825-.797.98Zm1.542-18.877.103 4.77c0 1.47-.026 2.45-.129 3.534-.154 1.882-.385 4.074-2.08 4.074-1.696 0-1.927-2.733-2.107-4.074-.077-.542-.18-1.341-.18-3.585 0-2.218.18-4.719.18-4.719H25.74s-.154 3.017-.154 4.693c0 1.65.103 2.811.154 3.585.283 3.584 1.079 5.57 4.06 5.57 2.722 0 3.724-1.934 4.032-5.596.103-1.238.103-2.14.103-3.507l-.128-4.72-1.927-.025ZM65.305 53.51c-1.105.284-2.081 1.032-2.081 2.656 0 2.502 2.03 3.172 3.262 3.353.437.051.54.051.565.051.206-.051.412-.051.617-.103.976-.335 1.824-1.057 1.824-2.527.026-3.636-4.188-3.43-4.188-3.43Zm1.67 4.203c-.052.026-.078.026-.13.052-.127.026-.282.026-.384.026-.848-.052-1.44-.31-1.44-1.444 0-.568.36-.98.797-1.058 1.13 0 1.953.13 1.953 1.444-.026.568-.386.826-.797.98Zm1.541-18.851.102 4.771c0 1.47-.025 2.45-.128 3.533-.154 1.883-.385 4.075-2.08 4.075-1.696 0-1.928-2.734-2.107-4.075-.078-.541-.18-1.34-.18-3.584 0-2.244.18-4.72.18-4.72h-1.927s-.154 3.017-.154 4.694c0 1.65.102 2.81.154 3.584.282 3.585 1.079 5.57 4.059 5.57 2.723 0 3.725-1.934 4.033-5.596.103-1.237.103-2.14.103-3.507l-.129-4.719-1.926-.026Zm35.632-27.155-5.498 15.19.591-15.19h-1.927l-.667 19.521h1.978l5.651-16.065-.385 16.066h1.901l.283-19.522h-1.927Zm-3.623 27.258L95.027 54.13l.591-15.19h-1.9l-.695 19.548h1.979l5.677-16.066-.385 16.04 1.875.026.283-19.522h-1.927Zm-53.178-.077-1.824-.13-.796 19.367 1.9.155.72-19.392Z" fill="#fff"/><path d="M46.55 50.312s6.038.335 5.704 4.796c-.206 2.734-3.52 3.224-5.677 3.25a13.725 13.725 0 0 1-1.876-.078l.077-1.522 1.824.181s3.571.774 3.777-2.037c.128-1.676-1.542-2.914-3.854-3.069l.026-1.521Zm10.148 8.045h-1.772l.462-19.496h1.799l-.489 19.496Z" fill="#fff"/><path d="m52.023 38.862 8.195-.155v1.496l-8.22.129.025-1.47ZM36.044 75.043c0-1.29-.052-2.27-.129-3.017v-.206c0-.103-.026-.232-.026-.335-.282-3.56-1.078-5.52-4.007-5.52-2.698 0-3.7 1.91-4.008 5.545-.102 1.238-.102 2.115-.102 3.482v1.444c0 1.29.05 2.27.128 3.017v.206c0 .103.026.232.026.335.282 3.56 1.079 5.52 4.007 5.52 2.698 0 3.7-1.91 4.008-5.545.103-1.238.103-2.115.103-3.482v-1.444Zm-4.136 8.536c-1.67 0-1.927-2.218-2.081-3.559 0-.051-.129-2.243-.129-4.41 0-2.063.103-4.074.103-4.126.154-1.856.385-3.558 2.055-3.558 1.67 0 1.927 2.218 2.081 3.558 0 .052.129 2.14.129 4.23 0 2.114-.103 4.255-.103 4.306-.154 1.857-.386 3.559-2.055 3.559Zm11.739-60.035 4.24-.361.23 1.444-4.624.206.154-1.29Z" fill="#fff"/><path d="m49.941 31.358-2.594-19.625-2.004-.18-3.777 19.78h1.645l2.774-15.628.18-.026L47.86 31.28l2.08.078ZM20.886 85.564h-1.875l.257-19.573h1.952l-.334 19.573Z" fill="#fff"/><path d="M16.416 75.893c0-1.031-.462-8.51 3.7-7.22l-.026-1.47c-1.439-.335-3.623-.207-4.753 2.32-.95 2.115-.925 5.004-.925 6.396 0 1.393.026 3.894.925 5.906 1.13 2.527 3.314 2.656 4.753 2.32l.025-1.47c-3.982 1.213-3.699-5.75-3.699-6.782Z" fill="#fff"/><path d="M23.815 75.893c0-1.031.462-8.51-3.7-7.22l.026-1.47c1.439-.335 3.622-.207 4.753 2.32.95 2.115.924 5.004.924 6.396 0 1.393-.025 3.894-.924 5.906-1.13 2.527-3.314 2.656-4.753 2.32l-.026-1.47c3.982 1.213 3.7-5.75 3.7-6.782Zm19.011-17.381-2.57-19.882-2.003-.18-3.776 20.062h1.644l2.697-16.091.18-.026 1.773 16.117h2.055Zm21.811-46.83-.411 11.501-4.753-3.404.206-8.123H57.7l-.514 19.702h1.953l.257-9.387 4.675 3.456-.23 5.931h1.977l.745-19.65-1.926-.026ZM45.42 65.553l-.411 11.502-4.727-3.404.18-8.124h-1.979L37.97 85.23h1.952l.257-9.386 4.676 3.455-.232 5.931h1.979l.745-19.65-1.927-.026ZM88.965 38.94l-.411 11.527-4.727-3.404.18-8.123h-1.953l-.54 19.676h1.953l.257-9.361 4.701 3.43-.23 5.93h1.952l.77-19.624-1.952-.051Zm26.769-27.232-5.498 15.19.591-15.19h-1.901l-.694 19.522h1.979l5.677-16.066-.385 16.066h1.875l.283-19.522h-1.927Zm-1.156-3.817c-.052.877-.206 1.728-1.182 1.728-1.156 0-1.336-.825-1.361-1.754l-1.285.155c.128 1.78.848 2.991 2.646 2.991 2.055 0 2.466-1.573 2.543-2.965l-1.361-.155Zm-2.543 31.075-5.498 15.189.617-15.19h-1.927l-.694 19.522h2.004l5.652-16.066-.386 16.04 1.876.026.282-19.521h-1.926Zm-1.131-3.843c-.051.877-.206 1.728-1.182 1.728-1.156 0-1.336-.825-1.361-1.753l-1.285.154c.129 1.78.848 2.992 2.646 2.992 2.055 0 2.466-1.573 2.544-2.966l-1.362-.155Z" fill="#fff"/><path d="m94.693 72.877-22.427-.438-.54-6.602 24.38 1.315-1.413 5.725ZM89.71 83.63l-22.402-.438-.54-6.576 24.355 1.29-1.413 5.724Z" fill="#A3D2D9"/></svg>
